X:1
T:Kanon Template
T:My Silvia Wears a Rosy Wreath
T:John Parry
%%score [ 1 2 3 ] { 4 | 5 }
L:1/8
Q:1/4=80
M:4/4
K:A
V:1 treble nm="I"
V:2 treble nm="II"
V:3 treble nm="III"
V:4 treble nm="Piano"
V:5 bass 
V:1
"^Allegretto" E2 | A2 A2 A2 z2 | z4 z2 E2 | B2 B2 B2 z2 | z4 z2 d2 | c2 B2 A2 G2 | F2 E2 D2 d2 | %7
w: My|Sil- via wears,|My|Sil- via wears,|My|Sil- via wears a|ro- sy wreath, By|
 c2 A2 B2 G2 | A4 z2 :| %9
w: me for her en-|twined.|
V:2
 z2 | z4 z2 c2 | A2 z2 z4 | z4 z2 d2 | B2 z2 z2 B2 | A2 G2 F2 E2 | D2 C2 B,2 B2 | %7
w: |A|wig,|A|wig, A|wig is by her|mo- ther worn, By|
 (Ac) (eA) (GB) (dB) | c4 z2 :| %9
w: bar- * ber's _ skill _ de- *|signed.|
V:3
 z2 | z8 | z2 E2 A2 z2 | z8 | z2 E2 B2 G2 | A2 ^E2 F2 C2 | D2 ^A2 B2 D2 | E2 C2 E2 E2 | A,4 z2 :| %9
w: ||Ann paints,||Ann paints, Ann|painds and sings, And|in her style dis-|plays a grace- ful|mind.|
V:4
 E2 | [CEA]2 [CEA]2 [CEA]2 [Ec]2 | [CA]2 E2 [CA]2 E2 | [EGB]2 [EGB]2 [EGB]2 [EGd]2 | %4
 [EGB]2 E2 [EGB]2 [Bd]2 | [Ac]E[GB]C [FA]C[EG]A, | [DF]A,[CE]F, [B,D]2 [FBd]2 | %7
 [EAc]2 [CEA]2 [DEB]2 [B,EG]2 | [CA]4 z2 :| %9
V:5
 z2 | A,2 E,2 C,2 A,,2 | A,4 z4 | E,2 E,,2 G,,2 B,,2 | E,4 z2 G,2 | A,2 ^E,2 F,2 C,2 | %6
 D,2 ^A,,2 B,,2 D,,2 | E,,2 E,2 E,,2 E,2 | A,,2 E,,2 A,,,2 :| %9

